!!!COM: Palestrina, Giovanni Perluigi da
!!!OPR: Missa In duplicibus minoribus (II)
!!!OMD: Gloria
!!!OTL: Glorificamus
**kern	**kern	**kern	**kern	**kern
*Ibass	*Itenor	*Itenor	*Icalto	*Icant
!Bassus	!Tenor 2	!Tenor 1	!Altus	!Cantus
*clefF4	*clefGv2	*clefGv2	*clefG2	*clefG2
*k[]	*k[]	*k[]	*k[]	*k[]
*E:phr	*E:phr	*E:phr	*E:phr	*E:phr
*M4/2	*M4/2	*M4/2	*M4/2	*M4/2
=17	=17	=17	=17	=17
1C	1c	1G	1e	1g
1GG	1B	[1G	1d	1g
=18	=18	=18	=18	=18
2.C	0c	1G]	1e	1g
4BB	.	.	.	.
1AA	.	1F	1f	1cc
=19	=19	=19	=19	=19
4GG	1.d	2.D	1g	1b
4AA	.	.	.	.
4BB	.	.	.	.
4C	.	4E	.	.
2D	.	4F	2f	1a
.	.	4G	.	.
2AA	4c	4A	2e	.
.	4B	4G	.	.
=20	=20	=20	=20	=20
2D	2A	2F	2d	2r
2E	2G	2E	2c	2g
1D	1A	1r	1d	2g
.	.	.	.	2f
=21	=21	=21	=21	=21
1C	1c	2r	1e	2.g
.	.	2c	.	.
.	.	.	.	4f
1r	1r	2c	1g	2e
.	.	2B	.	2d
=22	=22	=22	=22	=22
1r	2r	1A	1f	1c
.	2c	.	.	.
2r	2c	1G	1g	[1d
2G	2B	.	.	.
=23	=23	=23	=23	=23
2G	1A	1d	1a	1d]
2F	.	.	.	.
4E	2B	[1e	[1g	2r
4D	.	.	.	.
4C	4c	.	.	2cc
4D	8B	.	.	.
.	8A	.	.	.
=24	=24	=24	=24	=24
4E	4G	2e]	1g]	2cc
4F	4A	.	.	.
2G	4B	1d	.	2b
.	4c	.	.	.
1D	1d	.	1f	[1a
.	.	[2A	.	.
=25	=25	=25	=25	=25
0AA	2c	2A]	[0e	1a]
.	2B	2B	.	.
.	1A	1c	.	1a
=26	=26	=26	=26	=26
[0E	[0G#	[0B	1e_	[0b
.	.	.	1e_	.
=27	=27	=27	=27	=27
0E]	0G#]	0B]	0e]	0b]
*-	*-	*-	*-	*-
!!!CDT: 1525/^1526/-1594/2/2
!!!OCY: Italia
!!!AGN: Mass (Paraphrase)
!!!AST: renaissance, vocal
!!!ASW: Gregorian Mass
!!!PWK: Masses, Book Mantuan I
!!!RNB: Cadence finals: A
!!!YOR: Le Opere Complete, v. 18, p. 1
!!!YOO: Rome, Italy: Fratelli Scalera
!!!END: 1992//
!!!EED: John Miller
!!!YEC: Copyright 2000, John Miller
!!!YEN: United States of America
!!!YEM: Rights to all derivative electronic formats reserved.
!!!YEM: Refer to licensing agreement for further details.
!!!YEM: This file must be accompanied by the licensing agreement.
!!!YEM: A copy of the licensing agreement may be found at http://www.music-cog.ohio-state.edu/HumdrumDatabases/Palestrina/license.txt
!!!EMD: converted to Humdrum by Bret Aarden
